X: 37058
T: Silver Spear, The
R: reel
M: 4/4
K: Dmajor
eAAG A2(3B=cd|eaaf gedg|ea~a2 ba~a2|ded=c BG(3B=cd|
eAAG A2(3B=cd|eaaf gedg|e~a3 g3z|1 ded=c BG(3B=cd:|2 ded=c BGG2||
a2fa ba~a2|abag fddf|a2fa bafe|dfed BA~A2|
a2fa ba~a2|abag fdef|g3e f3z|efed BAA2:|

